!!!OTL-incipit: KOMM RAUS DU SCHOENE BRAUT
!!!ARE: Europa, Mitteleuropa, Deutschland
!!!SCT: Z0131
!!!TXL: @@DE
!!!YEM: Copyright 1995, estate of Helmut Schaffrath.
**kern	**text
*ICvox	*
*M3/4	*
*k[f#]	*
*G:	*
!LO:TX:a:t=Ʒarnacks Volkslieder.	!
!LO:TX:a:t=Brautlied.	!
{8g	Komm
8g	'raus,
8a	komm
=1	=1
4.b/	'raus,
8a	du
8b	ſchö-
8cc	-ne
=2	=2
8.ddL	Braut,
16ccJ	.
8b}	.
{8dd	dein'
8dd	gu-
8dd	-te
=3	=3
4.ee	Tag'
8dd	ſind
8cc	al-
8b	-le
=4	=4
4a	aus.
8r}	.
{8g	Komm
8g	'raus,
8a	komm
=5	=5
4.b/	'raus,
8a	du
8b	ſchö-
8cc	-ne
=6	=6
8.ddL	Braut,
16ccJ	.
8b}	.
{8dd	dein'
8dd	gu-
8dd	-te
=7	=7
4.ee	Tag'
8dd	ſind
8cc	al-
8b	-le
=8	=8
4a	aus.
8r}	.
=|:	=|:
{8a	O
8a	weh,
8b-/	o
=9	=9
4.cc	weh,
8a	o
8b-/	weh,
8g	o
=10	=10
(8.f#L	weh,
16gJ	.
8a)}	.
{8a	was
8a	weint
8b-/	die
=11	=11
4.cc	ſchö-
8a	-ne
8b-/	Braut
8g	ſo
=12	=12
4a;	ſehr!
8r}	.
{8g	Sie
8g	muß
8a	die
=13	=13
4.b	Jung-
8a	-fern
8b	laſ-
8cc	-fen
=14	=14
8.ddL	ſtehn,
16ccJ	.
8b}	.
{8dd	ſie
8dd	muß
8dd	nur
=15	=15
4.ee	ʒu
16ddL	den
16ccJ	.
8b	Wei-
8a	-bern
=16	=16
4g	gehn.
8r}	.
==	==
!!!AGN: Erzaehlung, lustige Romanze, Braut - Lied
!!!ONB: ESAC (Essen Associative Code) Database: ZUCCAL
!!!AMT: simple triple
!!!AIN: vox
!!!EED: Helmut Schaffrath
!!!EEV: 1.0
!!!GTL: II. Erzahlungen, lustige Romanzen, Kinder-Lieder und episch-lyrische Volks-Lieder.
!!!URL-scan: https://www.digitale-sammlungen.de/de/view/bsb11160571?page=248
!!!ENC: Anna Maria Matuszewska
!!!EEV: 2025/01/27
*-	*-
